X:1
T:In the bleak midwinter
T:In the bleak midwinter
T:Gustav Holst
T:Christina Rossetti
C:Gustav Holst
%%score [ 1 2 3 4 ]
L:1/8
Q:1/4=80
M:4/4
K:F
V:1 treble nm="Soprano"
V:2 treble nm="Alto"
V:3 treble-8 nm="Tenor"
V:4 bass nm="Bass"
V:1
"^In moderate time" A2 | (A3 B) c2 A2 | G3- G F2 z2 | (G3 A) G2 D2 | G6 G2 | (A3 B) c2 A2 | %6
w: |1.In the bleak mid-|win- * ter|fros- ty wind made|moan, |earth stood hard as|
w: 2.Our|God, heav'n can- not|hold _ him|nor _ earth sus-|tain; |heav'n and earth shall|
w: 3.E-|nough for him, whom|che- ru- bim|wor- ship night and|day, a|breast- * ful of|
w: |4.An- gels and arch-|an- * gels|may have ga- thered|there, |che- ru- bim and|
w: |5.What _ can I|give _ him,|poor _ as I|am? |If I were a|
 G3- G F2 F2 | G2 A2 (G3 F) | F6 F2 | (B3 A) B2 c2 | d2- d2 A2 A2 | (c2 A2) (G2 F2) | E6 E2 | %13
w: i- * ron, |wa- ter like a|stone; |snow had fal- len,|snow on snow, |snow _ on _|snow, |
w: flee a- way |when he comes to|reign: |in the bleak mid-|win- * ter a|sta- ble- place suf-|ficed the|
w: milk _ and a|man- ger- ful of|hay; e-|nough for him, whom|an- * gels |fall _ down be-|fore, the|
w: se- ra- phim |theong- ed the _|air; but|on- * ly his|mo- * ther |in her maid- en|bliss |
w: shep- * herd |I would bring a|lamb, |if I were a|wise _ man |I would do my|part, yet|
 (A3 B) c2 A2 | G4 F2 z2 | (G2 A2) (G3 F) | F8 |] %17
w: in the bleak mid-|win- ter|long _ a- *|go.|
w: Lord _ God al-|might- y|Je- * sus _|Christ.|
w: ox and ass and|ca- mel|which _ a- *|dore.|
w: wor- shipped the be-|lov- ed|with _ a _|kiss.|
w: what I can I|give hime,|give _ my _|heart.|
V:2
 F2 | (F3 F) F2 C2 | D3- D D2 z2 | (D3 D) D2 C2 | B,6 B,2 | (C3 F) F2 C2 | E3- E D2 D2 | %7
w: |1.In the bleak mid-|win- * ter|fros- ty wind made|moan, |earth stood hard as|i- * ron, |
w: 2.Our|God, heav'n can- not|hold _ him|nor _ earth sus-|tain; |heav'n and earth shall|flee a- way |
w: 3.E-|nough for him, whom|che- ru- bim|wor- ship night and|day, a|breast- * ful of|milk _ and a|
w: |4.An- gels and arch-|an- * gels|may have ga- thered|there, |che- ru- bim and|se- ra- phim |
w: |5.What _ can I|give _ him,|poor _ as I|am? |If I were a|shep- * herd |
 F2 F2 (E3 F) | F6 F2 | (F3 F) F2 _E2 | D2- D2 F2 F2 | (F2 =E2) (D2 D2) | C6 C2 | (C3 F) F2 C2 | %14
w: wa- ter like a|stone; |snow had fal- len,|snow on snow, |snow _ on _|snow, |in the bleak mid-|
w: when he comes to|reign: |in the bleak mid-|win- * ter a|sta- ble- place suf-|ficed the|Lord _ God al-|
w: man- ger- ful of|hay; e-|nough for him, whom|an- * gels |fall _ down be-|fore, the|ox and ass and|
w: theong- ed the _|air; but|on- * ly his|mo- * ther |in her maid- en|bliss |wor- shipped the be-|
w: I would bring a|lamb, |if I were a|wise _ man |I would do my|part, yet|what I can I|
 D4 D2 z2 | F4 (E3 F) | F8 |] %17
w: win- ter|long a- *|go.|
w: might- y|Je- sus _|Christ.|
w: ca- mel|which a- *|dore.|
w: lov- ed|with a _|kiss.|
w: give hime,|give my _|heart.|
V:3
 c2 | (c3 c) c2 F2 | A3- A A2 z2 | (G3 D) D2 F2 | (F4 E2) E2 | (F3 c) c2 F2 | A3- A A2 A2 | %7
w: |1.In the bleak mid-|win- * ter|fros- ty wind made|moan, _ |earth stood hard as|i- * ron, |
w: 2.Our|God, heav'n can- not|hold _ him|nor _ earth sus-|tain; _ |heav'n and earth shall|flee a- way |
w: 3.E-|nough for him, whom|che- ru- bim|wor- ship night and|day, _ a|breast- * ful of|milk _ and a|
w: |4.An- gels and arch-|an- * gels|may have ga- thered|there, _ |che- ru- bim and|se- ra- phim |
w: |5.What _ can I|give _ him,|poor _ as I|am? _ |If I were a|shep- * herd |
 d2 d2 (B3 A) | A6 A2 | (B3 c) B2 A2 | B2- B2 A2 A2 | (F2 c2) (B2 A2) | G6 G2 | (F3 c) c2 F2 | %14
w: wa- ter like a|stone; |snow had fal- len,|snow on snow, |snow _ on _|snow, |in the bleak mid-|
w: when he comes to|reign: |in the bleak mid-|win- * ter a|sta- ble- place suf-|ficed the|Lord _ God al-|
w: man- ger- ful of|hay; e-|nough for him, whom|an- * gels |fall _ down be-|fore, the|ox and ass and|
w: theong- ed the _|air; but|on- * ly his|mo- * ther |in her maid- en|bliss |wor- shipped the be-|
w: I would bring a|lamb, |if I were a|wise _ man |I would do my|part, yet|what I can I|
 A4 A2 z2 | d4 (B3 A) | A8 |] %17
w: win- ter|long a- *|go.|
w: might- y|Je- sus _|Christ.|
w: ca- mel|which a- *|dore.|
w: lov- ed|with a _|kiss.|
w: give hime,|give my _|heart.|
V:4
 F,2 | (F,3 G,) A,2 F,2 | D,3- D, D,2 z2 | (B,,3 C,) B,,2 A,,2 | (G,,4 C,2) C,2 | %5
w: |1.In the bleak mid-|win- * ter|fros- ty wind made|moan, _ |
w: 2.Our|God, heav'n can- not|hold _ him|nor _ earth sus-|tain; _ |
w: 3.E-|nough for him, whom|che- ru- bim|wor- ship night and|day, _ a|
w: |4.An- gels and arch-|an- * gels|may have ga- thered|there, _ |
w: |5.What _ can I|give _ him,|poor _ as I|am? _ |
 (F,3 G,) A,2 F,2 | D,3- D, D,2 D,2 | B,,2 B,,2 (C,3 F,) | F,6 F,2 | (D,3 F,) D,2 C,2 | %10
w: earth stood hard as|i- * ron, |wa- ter like a|stone; |snow had fal- len,|
w: heav'n and earth shall|flee a- way |when he comes to|reign: |in the bleak mid-|
w: breast- * ful of|milk _ and a|man- ger- ful of|hay; e-|nough for him, whom|
w: che- ru- bim and|se- ra- phim |theong- ed the _|air; but|on- * ly his|
w: If I were a|shep- * herd |I would bring a|lamb, |if I were a|
 B,,2- B,,2 D,2 D,2 | (A,,2 A,,2) (B,,2 B,,2) | C,6 C,2 | (F,3 G,) A,2 F,2 | D,4 D,2 z2 | %15
w: snow on snow, |snow _ on _|snow, |in the bleak mid-|win- ter|
w: win- * ter a|sta- ble- place suf-|ficed the|Lord _ God al-|might- y|
w: an- * gels |fall _ down be-|fore, the|ox and ass and|ca- mel|
w: mo- * ther |in her maid- en|bliss |wor- shipped the be-|lov- ed|
w: wise _ man |I would do my|part, yet|what I can I|give hime,|
 B,,4 (C,3 F,) | F,8 |] %17
w: long a- *|go.|
w: Je- sus _|Christ.|
w: which a- *|dore.|
w: with a _|kiss.|
w: give my _|heart.|

